48x48/apps/appimagekit-museeks.svg

<svg xmlns="http://www.w3.org/2000/svg" width="48" height="48" version="1">
 <rect fill="#469ed7" width="40" height="40" x="4" y="4" rx="20" ry="20"/>
 <path opacity=".2" d="m30 15-12 14 6 5 4-5v6h6v-20z"/>
 <path fill="#fff" opacity=".2" d="m24 4c-11.079 0-19.998 8.92-19.998 20 0 0.16772-0.004 0.33329 0 0.5 0.2642-10.846 9.087-19.5 19.998-19.5s19.734 8.6536 19.998 19.5c0.004-0.16671 0-0.33228 0-0.5 0-11.08-8.919-20-19.998-20z"/>
 <path opacity=".2" d="m4.0117 24.5c-0.0041 0.167-0.0117 0.332-0.0117 0.5 0 11.08 8.92 20 20 20s20-8.92 20-20c0-0.168-0.008-0.333-0.012-0.5-0.264 10.846-9.076 19.5-19.988 19.5s-19.724-8.654-19.988-19.5z"/>
 <path fill="#abfaff" d="m30 14-12 14 6 5 4-5v6h6v-20z"/>
 <path opacity=".2" d="m26 25-6 5-6 5v-20l6 5z"/>
 <path fill="#fff" transform="matrix(.71374 0 0 1.0302 3.84 -1.0694)" d="m31.048 24.335-8.4065 4.8535-8.4065 4.8535v-19.414l8.4065 4.8535z"/>
</svg>

<svg xmlns="http://www.w3.org/2000/svg" width="48" height="48" version="1"><rect fill="#469ed7" width="40" height="40" x="4" y="4" rx="20" ry="20"/><path opacity=".2" d="M30 15 18 29l6 5 4-5v6h6V15z"/><path fill="#fff" opacity=".2" d="M24 4A19.955 19.955 0 0 0 4.002 24c0 .168-.004.333 0 .5C4.266 13.654 13.089 5 24 5s19.734 8.654 19.998 19.5c.004-.167 0-.332 0-.5 0-11.08-8.919-20-19.998-20z"/><path opacity=".2" d="M4.012 24.5c-.004.167-.012.332-.012.5 0 11.08 8.92 20 20 20s20-8.92 20-20c0-.168-.008-.333-.012-.5C43.724 35.346 34.912 44 24 44S4.276 35.346 4.012 24.5z"/><path fill="#abfaff" d="M30 14 18 28l6 5 4-5v6h6V14z"/><path opacity=".2" d="m26 25-6 5-6 5V15l6 5z"/><path fill="#fff" d="m26 24-6 5-6 5V14l6 5z"/></svg>
